X: 16644
T: Hanley's Tweed
R: reel
M: 4/4
K: Adorian
A2EA FAEA|BedB ~G3B|AE~E2 AEAd|edef g2fg|
eaag edBd|g2fa gedg|edBA BG~G2|1 BedB GAA2:|2 BedB gaag||
|:eaaf g2fg|egdg egdg|eaaf g2ge|dG~G2 ~d3z|
ea~a2 bg~g2|a2ab g2ag|edBA BG~G2|1 BedB gaag:|2 BedB AEFG||

